X:1
T:A Wonderful Friend
T:A Wonderful Friend
T:Gordon Edgar Hooker
T:Gordon Edgar Hooker, 1922
T:Public Domain Courtesy of the Cyber Hymnal™
T:Public Domain Courtesy of the Cyber Hymnal™
C:Gordon Edgar Hooker
Z:Public Domain
Z:Courtesy of the Cyber Hymnal™
%%score ( 1 2 ) ( 3 4 )
L:1/8
Q:1/4=115
M:3/4
K:G
V:1 treble 
V:2 treble 
V:3 bass 
V:4 bass 
V:1
 B2 A3 G | B4 AG | [B,B]2 [DG]2 [CE]2 | [B,D]4 Bc | d4 B2 | B4 G2 | A6- [CF]2 E_E | [CDA]4 z2 | %8
w: 1.~I have a|friend, oh, a|won- der- ful|friend, He is|all in|all to|me; Pa- * *|tient|
w: 2.~I have a|friend, oh, a|won- der- ful|friend, And He|walks with|me each|day; Guard- * *|ing|
w: 3.~I have a|friend, oh, a|won- der- ful|friend, With- out|Him what|would I|do? In * *|time|
 B2 A3 G | B4 AG | d2 G2 [B,D]2 | [CE]4 [EGc]2 | B d3 [EFce]2 | ([DGB]2 [^CG]2) [=CDFA]2 | %14
w: and sweet, and|so ten- der|and kind, So|lov- ing|and good is|He. * When|
w: my steps lest|per- chance I|should fall— Be|tempt- ed|to go a-|stray. * Oh,|
w: of sor- row,|when tears dim|the eye, He|then is|so faithful and|true; * Or|
 G6- ([A,C]2 | [G,B,G]2) z4 | [EGB]2 [GB]2 [FAB]2 | e4 z2 e2 | ^d2 B2 (z A) | [EG]6 | %20
w: I was||lost in dark-|ness and|* sin, *||
w: it is||sweet to thus|know my|* Lord— *||
w: when temp-||ta- tion comes|like a|* flood— *||
 c2 c2 [CEFc]2 | B3 (z A) E2 | [^DF-]6 | [DF]4 (EF) | G3 F [CE]2 | %25
w: With- out a|hope * in|the|world, To *|Cal- va- ry’s|
w: Un- der His|care * I|a-|bide; There, *|no- thing can|
w: Al- most o’er-|whelmed * by|the|fight: I *|look up to|
 D2 !fermata![Dc]2"^riten." [DB]2 | [EGe]2 [DGd]2 [CFc]2 | !fermata!B4 !fermata![DE^G]2 G2 | %28
w: mount- ain went|Je- sus for|me, To bring|
w: harm me, I’m|kept by His|power— Each step|
w: Je- sus, His|stand- ard is|raised, And with|
 A2 c2 [Ge]2 | d4 EF | G6- | [B,G]4 z2 |] %32
w: * me safe|home to the|fold.||
w: * of the|way He’s my|guide.||
w: * Him I|walk in the|light.||
V:2
 B,6 | B,6 | x6 | x4 [DF]2 | [D^G]6 | [^CE]6 | [CG]2 C2 x6 | x6 | x6 | x6 | D4 x2 | x6 | [DF]4 x2 | %13
 x6 | [B,D]4 x4 | x6 | x6 | [EG]2 [GB]4 x2 | F4 ^D2 | x6 | [CEF]4 x2 | [DF]2 (.E2 E2) x | x6 | %23
 x4 C2 | B,4 x2 | D2 x4 | x6 | [B,=F]2 x6 | x6 | (Gc B2) D2 | D2 B,2 C2 | x6 |] %32
V:3
 [G,,D,]6 | D,2 ^D,2 E,2 | G,4 [C,G,]2 | G,6 | z2 [E,^G,B,]4 | z2 [E,G,A,]4 | %6
 z2 [D,A,]2 [D,G,]2 x4 | F,4 z2 | G,,2 [D,G,B,]4 | G,,2 [D,G,B,]4 | B,,4 [G,,G,]2 | %11
 (G,F,G,^G,) [A,,A,]2 | D,2 B,,2 A,,2 | (D,2 E,_E,) D,2 | (z ^C, D,2 D,,2 x2 | G,,2 G,,,2) z2 | %16
 E,,6 | [E,,B,,]2 E,4 x2 | B,,2 [^D,B,]2 [F,B,]2 | B,2 B,2 _B,2 | [A,,A,]4 A,,2 | B,,2 A,2 ^A,2 x | %22
 [B,,B,]6 | [A,,C]4 D,2 | E,2 D,2 C,2 | [B,,F,]2 !fermata![A,,F,]2 [G,,G,]2 | C,2 B,,2 A,,2 | %27
 ^G,,2 !fermata![E,,E,]2 z2 x2 | [A,,E,C]4 [^C,^A,]2 | (B,E D2) [D,C]2 | B,2 G,2 E,2 | %31
 [G,,D,]4 z2 |] %32
V:4
 x6 | G,,6 | G,,2 B,,2 x2 | G,2 G,,2 F,,2 | E,,6 | A,,,6 | D,,6 x4 | (D,2 D,,2) x2 | x6 | x6 | x6 | %11
 C,4 x2 | x6 | x6 | G,,2 x6 | x6 | x6 | x8 | x6 | E,6 | x6 | x2 C,4 x | x6 | x6 | x6 | x6 | x6 | %27
 x8 | x6 | D,4 x2 | G,,6- | x6 |] %32

